!!!COM: Scriabin, Alexander
!!!OTL@@FR: Mouvement no 3
!!!OTL@@EN: Movement No. 3
!!!OPR@@FR: Sonate no 3
!!!OPR@@EN: Sonata No. 3
!!!OPS: 23
!!!ONM: 3
!!!ODT: 1897
!!!AGN: Sonata movement
**kern	**kern	**dynam
*staff2	*staff1	*staff1/2
*Ipiano	*Ipiano	*
*clefF4	*clefG2	*
*k[f#c#g#d#a#]	*k[f#c#g#d#a#]	*
*B:	*B:	*
*M3/4	*M3/4	*
*	*^	*
8.eL	8f#L 8b	8.cc#L	p
.	8f#J 8a#	.	.
16d#Jk	.	16dd#Jk	.
=1	=1	=1	=1
*^	*	*	*
8r	2d#	8f#L 8a#	4ff#	.
8G#	.	8f#J 8b	.	.
8.G#L	.	8f#L 8b 8dd#	8.aa#L	.
.	.	8f#J 8b 8dd#	.	.
16D#Jk	.	.	16gg#Jk	.
*	*^	*	*	*
4GG#\	4D#	8BL	8f#L 8b	12ff#L	.
.	.	.	.	12dd#	.
.	.	16A#L	8f#J	.	.
.	.	.	.	12bJ	.
.	.	16G#JJ	.	.	.
=2	=2	=2	=2	=2	=2
2GG# 2C#\	2B/	8.ra	8eL 8b	2cc#	.
.	.	.	[8eJ [8b	.	.
.	.	16G# 16g#	.	.	.
.	.	4G# 4g#	8eL] 8b]	.	.
.	.	.	8eJ 8b	.	.
*	*v	*v	*	*	*
4GG# 4C#	4B	8eL 8g#	8.bL	.
.	.	8eJ 8g#	.	.
.	.	.	16cc#Jk	.
*v	*v	*	*	*
=3	=3	=3	=3
2CC# 2GG# 2C# 2B	8eL 8g#	4ee	.
.	8eJ 8g#	.	.
.	8eL 8b	8.gg#L	.
.	8eJ 8b	.	.
.	.	16ff#Jk	.
*	*v	*v	*
4CC# 4GG# 4C# 4B	12g#L 12b 12ee	.
.	12e 12g# 12b	.
.	12BJ 12e 12g#	.
!!LO:LB:g=original
=4	=4	=4
*^	*^	*
2FF# 2F#	8.r	8A#L 8c#L	2a#	.
.	.	8A#J 8c#J	.	.
.	16F# 16f#	.	.	.
.	4F# 4f#	8r	.	.
.	.	8A# 8c#	.	.
*v	*v	*	*	*
*	*	*^	*
8..F#L	8.B\L	8c#L	8.g#L	<
.	.	8c#J	.	(
.	16A#Jk	.	16a#Jk	(
32EJkk	.	.	.	[
*	*	*v	*v	*
=5	=5	=5	=5
2D#	8A#L 8f#L	4cc#	>
.	8A#J 8f#J	.	]
.	8c#L 8a#L	4ff#	.
.	8c#J 8a#J	.	.
*	*	*^	*
8..G#L	8.c#\L	8d#L	8.a#L	<
.	.	8d#J	.	(
.	16BJk	.	16bJk	(
32F#Jkk	.	.	.	(
*	*	*v	*v	*
=6	=6	=6	=6
*^	*	*	*
2E#X	4ryy	8BL 8g#	8dd#L	(
.	.	8c#J 8g#	8cc#J	(
.	4g#	8bL 8cc#	4bb	(
.	.	8bJ 8cc#	.	[
4E#	4gn	8bL 8cc##X	8.bbL	p
.	.	8bJ 8cc##	.	.
.	.	.	16bbJk	.
=7	=7	=7	=7	=7
2F#	4f#	8bL 8dd#	4bb	.
.	.	8bJ 8dd#	.	.
.	4d#	4.b	8aa#L	.
.	.	.	8gg#J	.
4G#	4d#	.	8ff#L	.
.	.	8g# 8b	8dd#J	.
*v	*v	*	*	*
!!LO:LB:g=original
=8	=8	=8	=8
8c#L	2g# 2b	8eeL	>
8d#J	.	8dd#J	)
4e	.	8gg#L	)
.	.	8cc#J	]
8.eL	8f#L 8b	8.cc#L	p
.	8f#J 8a#	.	.
16d#Jk	.	16dd#Jk	.
=9	=9	=9	=9
*^	*	*	*
8r	2d#	8f#L 8a#	4ff#	.
8G#	.	8f#J 8b	.	.
8.G#L	.	8f#L 8b 8dd#	8.aa#L	.
.	.	8f#J 8b 8dd#	.	.
16D#Jk	.	.	16gg#Jk	.
*	*^	*	*	*
4GG#\	4D#	8BL	8f#L 8b	12ff#L	.
.	.	.	.	12dd#	.
.	.	16A#L	8f#J	.	.
.	.	.	.	12bJ	.
.	.	16G#JJ	.	.	.
=10	=10	=10	=10	=10	=10
2GG# 2C#\	2B/	8.ra	8eL 8b	2cc#	.
.	.	.	[8eJ [8b	.	.
.	.	16G# 16g#	.	.	.
.	.	4G# 4g#	8eL] 8b]	.	.
.	.	.	8eJ 8b	.	.
*	*v	*v	*	*	*
4GG# 4C#	4B	8eL 8g#	8.bL	.
.	.	8eJ 8g#	.	.
.	.	.	16cc#Jk	.
*v	*v	*	*	*
=11	=11	=11	=11
2CC# 2GG# 2C# 2B	8eL 8g#	[4ee	.
.	8eJ 8g#	.	.
.	6e 6b	12eeL]	.
.	.	12aa#	.
.	12b 12ee	12gg#J	.
4CC# 4GG# 4C# 4B	12g#L 12b	12eeL	.
.	12e 12g#	12b	.
.	12BJ 12e	12g#J	.
!!LO:LB:g=original
=12	=12	=12	=12
*^	*	*	*
2FF# 2F#	8.r	8A#L 8c#L	2a#	.
.	.	8A#J 8c#J	.	.
.	16F# 16f#	.	.	.
.	4F# 4f#	8r	.	.
.	.	8A# 8c#	.	.
*v	*v	*	*	*
*	*	*^	*
8..F#L	8.B\L	8c#L	8.g#L	<
.	.	8c#J	.	(
.	16A#Jk	.	16a#Jk	(
32EJkk	.	.	.	[
*	*	*v	*v	*
=13	=13	=13	=13
2D#	8A#L 8f#L	4cc#	.
.	8A#J 8f#J	.	>
.	8c#L 8a#L	4ff#	)
.	8c#J 8a#J	.	]
*	*	*^	*
8..G#L	8.c#\L	8d#L	8.a#L	<
.	.	8d#J	.	(
.	16BJk	.	16bJk	(
32F#Jkk	.	.	.	(
*	*	*v	*v	*
=14	=14	=14	=14
*^	*	*	*
2E#X	4ryy	8BL 8g#	4dd#	(
.	.	8BJ 8g#	.	[
.	8d#L 8g#	8dd#L	4b 4bb	.
.	8d#J 8g#	8dd#J	.	.
4E#	8d#L 8g#	8dd#L	8.bL 8.bb	f
.	8d#J 8g#	8dd#J	.	.
.	.	.	16bJk 16bb	.
=15	=15	=15	=15	=15
[8qAA#\	.	.	.	.
2AA#]	8G#L 8d# 8g#	8dd#L	4b 4bb	.
.	8G#J 8d# 8g#	8dd#J	.	.
.	4E#X 4d# 4b	4dd#	8a#L 8aa#	.
.	.	.	8g#J 8gg#	.
[8qAA#\	.	.	.	.
4AA#]	4G# 4c##X 4b	4cc##X	8f#L 8ff#	.
.	.	.	8c##XJ 8cc##	.
!!LO:LB:g=original
=16	=16	=16	=16	=16
*	*^	*	*	*
[8qDD# [8qAA#\	.	.	.	.	.
2DD#] 2AA#\]	4F# 4a#	8c##XL	8cc##XL	8e#XL 8ee#X	>
.	.	8d#J	8dd#J	8d#J 8dd#	.
*	*	*	*v	*v	*
.	4AA#	4F# 4d#	8f#L 8ff#	.
.	.	.	8A#J 8a#	.
*	*v	*v	*	*
*v	*v	*	*
8.D#L	4r	mf
[16D#Jk	.	.
=17	=17	=17
*^	*^	*
2D#]	2c#X	16g#LL	8bL 8eenL	.
.	.	16f#	.	.
.	.	16f##X	16a#L 16dd#L	.
.	.	16eJJ	16anJJ 16cc#XJJ	.
*	*	*	*^	*
.	.	16g#\LL	8b/L	4.cc#	.
.	.	16f#X	.	.	.
.	.	16f##X	16a#XL	.	.
.	.	16eJJ	16anJJ	.	.
*v	*v	*	*	*	*
8.D#L	16g#\LL	8b/L	.	.
.	16f#X	.	.	.
.	16f##X	16a#XL	8cc#	.
[16D#Jk	16eJJ	16anJJ	.	.
*	*	*v	*v	*
=18	=18	=18	=18
*^	*	*	*
2.D#]	8BL	16eLL	4g# 4cc#	.
.	.	16d#	.	.
.	16.A#XL	16e	.	.
.	.	16c#JJ	.	.
.	32G#JJk	.	.	.
.	4G#	16eLL	4g# 4b	.
.	.	16d#	.	.
.	.	16e	.	.
.	.	16c#JJ	.	.
.	4B	16eLL	4g#	.
.	.	16d#	.	.
.	.	16e	.	.
.	.	16c#JJ	.	.
*v	*v	*	*	*
!!LO:LB:g=original
=19	=19	=19	=19
*	*	*^	*
8.DDD#L 8.DD#	4B	16gnLL	8bL	p
.	.	16e#X	.	.
.	.	16f#	16a#L	.
16EEEJk 16EE	.	16enJJ	16g#XJJ	.
*	*	*v	*v	*
8EEEL 8EE	16eLL	8BL 8g#	.
.	16dn	.	.
16FFF#L 16FF#	16d#X	16A#L 16f#	.
16GGG#JJ 16GG#	16BJJ	16G#JJ 16e	.
*	*clefF4	*clefF4	*
8AAA#L 8AA#	16c#LL	8G#L 8e	.
.	16G#	.	.
16BBBL 16BB	16B	16F##XL 16d#	.
16CC#JJ 16C#	16G#JJ	16EJJ 16c#	.
=20	=20	=20	=20
2DD# 2D#	16G#LL	4B	.
.	16F#X	.	.
.	16F##X	.	.
.	16D#JJ	.	.
.	16G#LL	8A#	<
.	16F#X	.	(
.	16F##X	8r	(
.	16A#JJ	.	[
*	*v	*v	*
*	*clefG2	*
8.D#/L	16eLL	mf
.	16c##X	.
.	16d#	.
[16D#Jk	16eJJ	.
!!LO:LB:g=original
=21	=21	=21
*^	*^	*
2D#]	2c#X	16g#LL	8bL 8eeL	.
.	.	16f#X	.	.
.	.	16f##X	16a#L 16dd#L	.
.	.	16eJJ	16anJJ 16cc#XJJ	.
*	*	*	*^	*
.	.	16g#\LL	8b/L	4.cc#	.
.	.	16f#X	.	.	.
.	.	16f##X	16a#XL	.	.
.	.	16eJJ	16anJJ	.	.
*v	*v	*	*	*	*
8.D#/L	16g#\LL	8b/L	.	.
.	16f#X	.	.	.
.	16f##X	16a#XL	8cc#	.
[16D#Jk	16eJJ	16anJJ	.	.
*	*	*v	*v	*
=22	=22	=22	=22
*^	*	*	*
2.D#]	8BL	16eLL	4g# 4cc#	.
.	.	16d#	.	.
.	16.A#XL	16e	.	.
.	.	16c#JJ	.	.
.	32G#JJk	.	.	.
.	4G#	16eLL	4g# 4b	.
.	.	16d#	.	.
.	.	16e	.	.
.	.	16c#JJ	.	.
.	4B	16eLL	4g#	.
.	.	16d#	.	.
.	.	16e	.	.
.	.	16c#JJ	.	.
*v	*v	*	*	*
!!LO:LB:g=original
=23	=23	=23	=23
*	*	*^	*
8.DDD#L 8.DD#	4B	16gnLL	8bL	p
.	.	16e#X	.	.
.	.	16f#	16a#L	.
16EEEJk 16EE	.	16enJJ	16g#XJJ	.
*	*	*v	*v	*
8EEEL 8EE	16eLL	8BL 8g#	.
.	16dn	.	.
16FFF#L 16FF#	16d#X	16A#L 16f#	.
16GGG#JJ 16GG#	16BJJ	16G#JJ 16e	.
*	*clefF4	*clefF4	*
8AAA#L 8AA#	16c#LL	8G#L 8e	.
.	16G#	.	.
16BBBL 16BB	16B	16F##XL 16d#	.
16CC#JJ 16C#	16G#JJ	16EJJ 16c#	.
=24	=24	=24	=24
2DD# 2D#	16G#LL	4B	.
.	16F#X	.	.
.	16F##X	.	.
.	16D#JJ	.	.
.	16G#LL	4A#	.
.	16F#X	.	.
.	16F##X	.	.
.	16D#JJ	.	.
[4DD# [4D#	16G#LL	8.BL	f
.	16F#X	.	.
.	16Gn	.	.
.	16GJJ	16BJk	.
=25	=25	=25	=25
4DD#] 4D#]	16BLL	2gn	.
.	16A#	.	.
.	16B	.	.
.	16GnJJ	.	.
4EE 4E	16cnLL	.	.
.	16A#	.	.
.	16B	.	.
.	16GJJ	.	.
[4DDD# [4DD#	8.BBL	16GLL	p
.	.	16F#	.
.	.	16G	.
.	16BBJk	16GJJ	.
!!LO:LB:g=original
=26	=26	=26	=26
4DDD#] 4DD#]	2Gn	16BLL	.
.	.	16A#	.
.	.	16B	.
.	.	16BJJ	.
4EEE 4EE	.	16cnLL	.
.	.	16A#	.
.	.	16B	.
.	.	16GJJ	.
[4EE [4E	16G#XLL	8.B#XL	f
.	16F##X	.	.
.	16G#	.	.
.	16G#JJ	16B#Jk	.
=27	=27	=27	=27
4EE] 4E]	16B#XLL	2g#	.
.	16Bn	.	.
.	16B#X	.	.
.	16B#JJ	.	.
4EE 4E	16d#LL	.	.
.	16B#	.	.
.	16c#	.	.
.	16G#JJ	.	.
[4EEE [4EE	8.BB#XL	16G#LL	p
.	.	16F##X	.
.	.	16G#	.
.	16BB#Jk	16G#JJ	.
=28	=28	=28	=28
4EEE] 4EE]	2G#	16B#XLL	.
.	.	16Bn	.
.	.	16B#X	.
.	.	16B#JJ	.
4EEE 4EE	.	16d#LL	.
.	.	16B#	.
.	.	16c#	.
.	.	16c#JJ	.
*	*clefG2	*clefG2	*
4EE 4E	16d#LL	4e 4g#	.
.	16B#X	.	.
.	16c#	.	.
.	16c#JJ	.	.
!!LO:LB:g=original
=29	=29	=29	=29
2FFn 2Fn	16c#LL	4dn 4g#	<
.	16A#	.	.
.	16Bn	.	.
.	16BJJ	.	.
.	16c#LL	4d 4gn	.
.	16A#	.	.
.	16B	.	.
.	16BJJ	.	.
4FF 4F	16eLL	4g 4b	.
.	16c#	.	.
.	16d	.	.
.	16dJJ	.	.
=30	=30	=30	=30
4DD#X 4D#X	16a-XLL	2cn 2ccn	f
.	16f#X	.	.
.	16gn	.	.
.	16gJJ	.	>
4EE 4E	16anLL	.	)
.	16f#	.	)
.	16g	.	)
.	16gJJ	.	]
4EE#X 4C##X	16BLL	4g	.
.	16A#X	.	.
.	16c#X	.	.
.	16BJJ	.	.
=31	=31	=31	=31
*^	*	*	*
2FF#	4D#	16BLL	4f#	>
.	.	16A#	.	.
.	.	16c#	.	.
.	.	16BJJ	.	.
.	4F#	16d#LL	4b	.
.	.	16c##X	.	.
.	.	16e	.	.
.	.	16d#JJ	.	.
4FF#	4F#	16gnLL	4b 4dd#	.
.	.	16e#X	.	.
.	.	16f#	.	.
.	.	16d#JJ	.	.
*v	*v	*	*	*
!!LO:LB:g=original
=32	=32	=32	=32
*	*	*^	*
2F#	16gn\LL	8b/L	4dd#	.
.	16e#X	.	.	.
.	16f#	16a#L	.	.
.	16enJJ	16anJJ	.	.
.	16g\LL	8b/L	4cc#	.
.	16e#X	.	.	.
.	16f#	16a#XL	.	.
.	16enJJ	16anJJ	.	.
8.eL	16g\LL	8bL	8.cc#L	p
.	16an	.	.	.
.	16f#	8bJ	.	.
16d#Jk	16a#XJJ	.	16dd#Jk	.
=33	=33	=33	=33	=33
*^	*	*	*	*
8r	2d#	4f#\	16cc#LL	4ff#	.
.	.	.	16a#	.	.
8G#X	.	.	16cc#	.	.
.	.	.	[16bJJ	.	.
8.G#L	.	4f# 4dd#\	16bLL]	8.aa#L	.
.	.	.	16a#	.	.
.	.	.	16cc#	.	.
16D#Jk	.	.	16bJJ	16gg#XJk	.
*	*^	*	*	*	*
4GG#\	4D#	8BL	4f#\	16bLL	12ff#L	.
.	.	.	.	16g#X	.	.
.	.	.	.	.	12dd#	.
.	.	16A#L	.	16f#	.	.
.	.	.	.	.	12bJ	.
.	.	16G#JJ	.	16bJJ	.	.
=34	=34	=34	=34	=34	=34	=34
*	*	*^	*	*	*	*
2GG#	8.C#\L	2B/	8.ra	16f#\LL	2b	2cc#	.
.	.	.	.	16d#	.	.	.
.	.	.	.	16f#	.	.	.
.	[16EJk	.	16G# 16g#	16eJJ	.	.	.
.	4E\]	.	4G# 4g#	16d#\LL	.	.	.
.	.	.	.	16B	.	.	.
.	.	.	.	16d#	.	.	.
.	.	.	.	16c#JJ	.	.	.
*	*	*v	*v	*	*	*	*
*	*v	*v	*	*	*	*
*v	*v	*	*	*	*
4GG# 4C# 4B	16e\LL	4g#	8.bL	.
.	16d#	.	.	.
.	16f#	.	.	.
.	16eJJ	.	16cc#Jk	.
!!LO:LB:g=original
=35	=35	=35	=35	=35
2CC# 2GG# 2C# 2B	4g#\	16dd#LL	4ee	.
.	.	16b	.	.
.	.	16dd#	.	.
.	.	16cc#JJ	.	.
.	4e\	16bLL	6gg#	.
.	.	16a#	.	.
.	.	16cc#	.	.
.	.	.	12ff#	.
.	.	16bJJ	.	.
4CC# 4GG# 4C# 4B	8e\L	16bLL	12eeL	.
.	.	16g#	.	.
.	.	.	12cc#	.
.	8BJ	16e	.	.
.	.	.	12g#J	.
.	.	16g#JJ	.	.
=36	=36	=36	=36	=36
2FF# 2F#	2A# 2c#\	16g#LL	2a#	.
.	.	16e#X	.	.
.	.	16g#	.	.
.	.	16f#JJ	.	.
.	.	16f#LL	.	.
.	.	16e#	.	.
.	.	16g#	.	.
.	.	16f#JJ	.	.
*	*	*v	*v	*
*^	*	*	*
8..F#L	8.BL	16c#LL	8.g#L	.
.	.	16B	.	.
.	.	16d#	.	.
.	16A#Jk	16c#JJ	16a#Jk	.
32EJkk	.	.	.	.
=37	=37	=37	=37	=37
2D#	4A#	16g#LL	4cc#	>
.	.	16e#X	.	)
.	.	16g#	.	)
.	.	16f#JJ	.	]
.	16c#LL	4a#	4ff#	.
.	16B#X	.	.	.
.	16d#	.	.	.
.	16c#JJ	.	.	.
8..G#L	8.c#L	16d#LL	8.a#L	.
.	.	16c#	.	.
.	.	16en	.	.
.	16BnJk	16d#JJ	16bJk	.
32F#Jkk	.	.	.	.
!!LO:LB:g=original
=38	=38	=38	=38	=38
2E#X	8BL	16a#LL	8dd#L	<
.	.	16f##X	.	(
.	8c#J	16a#	8cc#J	(
.	.	16g#JJ	.	[
.	16g#LL	4cc#	4bb	.
.	16f##X	.	.	.
.	16a#	.	.	.
.	16g#JJ	.	.	.
4E#	4gn	16ddnLL	8..bbL	.
.	.	16cc#	.	.
.	.	16een	.	.
.	.	16ddJJ	.	.
.	.	.	32bbJkk	.
=39	=39	=39	=39	=39
4F#	4f#	16dd#XLL	4bb	.
.	.	16cc##X	.	.
.	.	16ee	.	.
.	.	16dd#JJ	.	.
4F#	4d#	16bLL	8.aa#L	.
.	.	16a#	.	.
.	.	16cc#X	.	.
.	.	16bJJ	16gg#Jk	.
4G# 4d#	8r	16bLL	8ff#L	.
.	.	16a#	.	.
.	8g#	16cc#	8dd#J	.
.	.	16bJJ	.	.
=40	=40	=40	=40	=40
8c#L	2g#	16bLL	8eeL	.
.	.	16a#	.	.
8d#J	.	16cc#	8dd#J	.
.	.	16bJJ	.	.
4e	.	16bLL	8gg#L	.
.	.	16a#	.	.
.	.	24cc#	8cc#J	.
.	.	24g#	.	.
.	.	24a#JJ	.	.
*	*^	*	*	*
4G#\	4d#	4g#	24cc#LL	4ff#	pp
.	.	.	24a#	.	.
.	.	.	24cc#	.	.
.	.	.	24b#X	.	.
.	.	.	24g#	.	.
.	.	.	24a#JJ	.	.
*	*v	*v	*	*	*
!!LO:LB:g=original
=41	=41	=41	=41	=41
8c#L	2g#	24cc#LL	8ee#XL	.
.	.	24a#	.	.
.	.	24cc#	.	.
8d#J	.	24bn	8dd#J	.
.	.	24g#	.	.
.	.	24a#JJ	.	.
4e#X	.	24cc#LL	4gg#	.
.	.	24a#	.	.
.	.	24cc#	.	.
.	.	24b	.	.
.	.	24g#	.	.
.	.	24a#JJ	.	.
*v	*v	*	*	*
4E#X	4c#	24cc#LL	.
.	.	24a#	.
.	.	24cc#	.
.	.	24b	.
.	.	24g#	.
.	.	24a#JJ	.
=42	=42	=42	=42
*^	*	*	*
24F#LL	8F#L	4d#	24cc#LL	.
24D#	.	.	24a#	.
[24FF#J	.	.	24cc#	.
8FF#J]	8BJ	.	24b	.
.	.	.	24f#	.
.	.	.	24g#JJ	.
*	*	*v	*v	*
*v	*v	*	*
4F# 4d#	24bLL	.
.	24g#	.
.	24b	.
.	24a#	.
.	24d#	.
.	24f#JJ	.
4D# 4B	24a#LL	.
.	24f#	.
.	24a#	.
.	24g#	.
.	24f#	.
.	24a#JJ	.
!!LO:LB:g=original
=43	=43	=43
*^	*	*
24F#LL	8F#L	24dd#/LL	.
24E	.	24b#X	.
[24FF#J	.	24dd#	.
8FF#J]	8A#J	24cc#	.
.	.	24a#	.
.	.	24cc#JJ	.
4C#	4e	24gg#/LL	.
.	.	24ee#X	.
.	.	24gg#	.
.	.	24ff#	.
.	.	24cc#	.
.	.	24ff#JJ	.
*	*	*^	*
!	!	!	!	!LO:DY:a=1
24c#LL	8.c#L	8cc#L 8ff#	24bbLL	pp
24En	.	.	24gg##X	.
[24FF#J	.	.	24bb	.
8FF#J]	.	16ff#Jk	24aa#	.
.	.	.	24bn	.
.	16d#Jk	16r	.	.
.	.	.	24ff#JJ	.
=44	=44	=44	=44	=44
32f#LLL	4f#	8ff#L	24ddd#LL	.
32B	.	.	.	.
.	.	.	24bb	.
32D#	.	.	.	.
.	.	.	24ddd#	.
32FF#JJ	.	.	.	.
[8BBBJ	.	16dd#Jk 16ff#	24ccc#	.
.	.	.	24dd#	.
.	.	16r	.	.
.	.	.	24ff#JJ	.
2BBB]	8.a#L	8dd#L 8ff#	24ccc#LL	.
.	.	.	24aa#	.
.	.	.	24ccc#	.
.	.	16dd#Jk	24bb	.
.	.	.	24dd#	.
.	16g#Jk	16r	.	.
.	.	.	24gg#XJJ	.
.	12f#L	8bL 8dd#	24bbLL	.
.	.	.	24gg#	.
.	12d#	.	24bb	.
.	.	16bJk	24ff#	.
.	12BJ	.	24dd#	.
.	.	16r	.	.
.	.	.	24ff#JJ	.
!!LO:LB:g=original
=45	=45	=45	=45	=45
*	*^	*	*	*
32c#\LLL	2c#/	8.re	8g#L 8b	24ff#LL	.
32B	.	.	.	.	.
.	.	.	.	24dd#	.
32E	.	.	.	.	.
.	.	.	.	24ff#	.
32GG#JJ	.	.	.	.	.
[8BBBJ	.	.	16g#Jk 16b	24ee	.
.	.	.	.	24g#	.
.	.	16G# 16g#	16r	.	.
.	.	.	.	24bJJ	.
2BBB\]	.	4G# 4g#	8eL 8b	24dd#LL	.
.	.	.	.	24b	.
.	.	.	.	24dd#	.
.	.	.	16eJk 16b	24cc#	.
.	.	.	.	24e	.
.	.	.	16r	.	.
.	.	.	.	24g#JJ	.
*	*v	*v	*	*	*
.	8.BL	4r	24cc#LL	.
.	.	.	24b	.
.	.	.	24dd#	.
.	.	.	24gg#	.
.	.	.	24ee	.
.	16c#Jk	.	.	.
.	.	.	24gg#JJ	.
=46	=46	=46	=46	=46
32eLLL	4e	8cc#L 8gg#	24ddd#LL	.
32B	.	.	.	.
.	.	.	24bb	.
32E	.	.	.	.
.	.	.	24ddd#	.
32GG#JJ	.	.	.	.
[8BBBJ	.	16eeJk 16gg#	24ccc#	.
.	.	.	24ee	.
.	.	16r	.	.
.	.	.	24gg#JJ	.
2BBB]	8.g#L	8eeL 8gg#	24ccc#LL	.
.	.	.	24gg#	.
.	.	.	24ccc#	.
.	.	16eeJk	24bb	.
.	.	.	24ee	.
.	16f#Jk	16r	.	.
.	.	.	24gg#JJ	.
.	12eL	8bL 8ee	24bbLL	.
.	.	.	24gg#	.
.	12c#	.	24bb	.
.	.	16bJk	24gg#	.
.	12G#J	.	24b	.
.	.	16r	.	.
.	.	.	24eeJJ	.
!!LO:LB:g=original
=47	=47	=47	=47	=47
*	*^	*	*	*
24A#\LL	2A#/	8.re	8a#L 8cc#	24gg#LL	.
24En	.	.	.	24ee#X	.
24FF#J	.	.	.	24gg#	.
[8BBBJ	.	.	16a#Jk 16cc#	24ff#	.
.	.	.	.	24f#	.
.	.	16F# 16f#	16r	.	.
.	.	.	.	24a#JJ	.
4BBB\]	.	4F# 4f#	8enL 8a#	24dd#LL	.
.	.	.	.	24b#X	.
.	.	.	.	24dd#	.
.	.	.	16eJk 16a#	24cc#	.
.	.	.	.	24c#	.
.	.	.	16r	.	.
.	.	.	.	24eJJ	.
*	*v	*v	*	*	*
*v	*v	*	*	*
24A#LL	24g#LL	8.g#L	.
24E	24e	.	.
24FF#J	24g#	.	.
8BBBJ	24f#	.	.
.	24d#	.	.
.	.	16a#Jk	.
.	24f#JJ	.	.
=48	=48	=48	=48
24BLL	24a#LL	4dd#	.
24D#	24f#	.	.
24FF#J	24a#	.	.
8BBBJ	24g#	.	.
.	24f#	.	.
.	24a#JJ	.	.
8F# 8d#	24cc#LL	4ff#	.
.	24a#	.	.
.	24cc#	.	.
8r	24b	.	.
.	24c#	.	.
.	24eJJ	.	.
24A#LL	24g#LL	8.g#L	.
24E	24e	.	.
24FF#J	24g#	.	.
8BBBJ	24f#	.	.
.	24d#	.	.
.	.	16a#Jk	.
.	24f#JJ	.	.
!!LO:LB:g=original
=49	=49	=49	=49
24BLL	24a#LL	4dd#	.
24D#	24f#	.	.
24FF#J	24a#	.	.
8BBBJ	24g#	.	.
.	24f#	.	.
.	24a#JJ	.	.
8F# 8d#	24cc#LL	4ff#	.
.	24a#	.	.
.	24cc#	.	.
8r	24b	.	.
.	24d#	.	.
.	24f#JJ	.	.
!	!	!	!LO:DY:b=2
[4BBB [4FF# [4BB	24bLL	4r	pp
.	24g#	.	.
.	24b	.	.
.	24a#	.	.
.	24d#	.	.
.	24f#JJ	.	.
*	*v	*v	*
=50	=50	=50
2BBB_ 2FF#_ 2BB_	24a#LL	.
.	24f#	.
.	24a#	.
.	24g#	.
.	24B	.
.	24d#JJ	.
*	*^	*
.	8ryy	24g#LL	.
.	.	24d#	.
.	.	24g#	.
.	24ryy	24f#	.
.	[12F#	24F#	.
.	.	[24BJJ	.
8BBB_ 8FF#_ 8BB_	8F#_ 8B_	24eLL	.
.	.	24c#	.
.	.	24eJJ	.
12BBB] 12FF#] 12BB]	12F#] 12B]	12d#	.
24FFF# 24FF#	24ryy	[24D# [24F# [24B [24d#	pp
!!LO:LB:g=original
=51	=51	=51	=51
8.BBB 8.BB	8.ryy	8.D#] 8.F#] 8.B] 8.d#]	.
[16F#	[16f#	16d# 16b	.
*	*	*^	*
4..F#]	4c#\	4..f#]	4cc#	.
.	8.ryy	.	8.B 8.dd#	.
16FFF# 16FF#	16ryy	16ryy	[16Dn [16F# [16B [16dn	.
*	*	*v	*v	*
=52	=52	=52	=52
6BBB 6BB	6ryy	6D] 6F#] 6B] 6d]	.
[12F# [12dn [12an	[12b [12ff#	12ccc#	.
4F#] 4d] 4a]	4b] 4ff#]	12dddnL	.
.	.	12bb	.
.	.	12ff#J	.
8.d 8.f# 8.ddn	8.b 8.ff#	8.aan	.
*	*clefF4	*clefF4	*
16EEE 16EE	16ryy	[16BB [16E [16G# [16B	.
=53	=53	=53	=53
8.BBB 8.BB	8.ryy	8.BB] 8.E] 8.G#] 8.B]	.
*	*clefG2	*clefG2	*
[16B	16g# 16ee	[16b	.
4..B]	4f# 4ff#	4..b]	.
.	8.e 8.gg#	.	.
*	*clefF4	*clefF4	*
16DDDn 16DDn	16ryy	[16BB#X [16F# [16B#X	.
*	*v	*v	*
=54	=54	=54
4GG#	4BB#] 4F#] 4B#]	.
*	*clefG2	*
4F# 4B#X 4f#	4b#X 4ff# 4bb#X	.
8.DDn 8.Dn	8.B#X 8.f# 8.b#	.
16CC# 16C#	16r	.
!!LO:LB:g=original
=55	=55	=55
2AAn 2An	12r	.
.	12r	.
.	12c#	.
.	8.f#L 8.cc#	.
.	16f#Jk 16cc#	.
8.r	8f#L 8cc#	.
.	8c#J	.
16CC# 16C#	.	.
=56	=56	=56
2AAn 2An	12r	<
.	12r	(
.	12c#	(
.	8.f#L 8.cc#	(
.	16f#Jk 16cc#	(
8.r	8f#L 8cc#	(
.	8c#J	(
16CC# 16C#	.	[
=57	=57	=57
2GG# 2G#	12r	.
.	12r	.
.	12B	>
.	8.f#L 8.cc#	)
.	16f#Jk 16cc#	)
8.r	8f#L 8cc#	)
.	8BJ	)
16CC# 16C#	.	]
=58	=58	=58
2C# 2c#	12r	.
.	12r	.
.	12B	.
.	8.e#XL 8.cc#	.
.	16e#Jk 16cc#	.
4CC# 4C#	8e#L 8cc#	.
.	8BJ 8e#	.
!! attacca
=||	=||	=||
*-	*-	*-
!!!system-decoration: {(*)}
!!!filter: flipper -a
!!!RDF**dynam: > = dim.
!!!ENC: Bryan Jacob Bell
!!!END: November 2021 to April 2022
!!!PED: Günter Philipp
!!!PTL: Ausgewählte Klavierwerke (Edition Peters)
!!!URL-pdf: https://github.com/bel28kent/Mysterium/blob/main/reference_editions/op23.pdf
